;[name=ym2413_rhythm_mode_toggle lpf=1]
#opll_mode 0
#tempo 132
#title { "YM2413 Rhythm Mode Toggle" }

; 目的: rhythm enable / disable を短い間隔で交互に行う
; KeyOn ビット・内部キャッシュのズレ検出

; (擬似) #rhythm 1
9 @3 v13 o4 l16 c d e f g a b > c < b a g f e d
; (擬似) #rhythm 0
9 @4 v13 o4 l16 c r c r c r c r
; (擬似) #rhythm 1
9 @5 v13 o5 l16 g a b > c d e f
; (擬似) #rhythm 0
9 @2 v12 o3 l8 c r c r