;[name=ym2413_short_pulses lpf=1]
#opll_mode 0
#tempo 180
#title { "Short Pulses" }

; l64 / l128 など最小単位 (環境が許す範囲) を使い高速 KeyOn/Off。
; Retrigger ロジックと Envelope 初期化確認。

9 @1 v15 o5 l64 c c c c c c c c
9 @1 v12 o5 l64 d e f g a b > c
9 @1 v10 o5 l64 c r c r c r c r